icons/fill-ele-symbol-unfold 2.svg

<svg xmlns="http://www.w3.org/2000/svg" width="32px" height="32px" viewBox="0 0 32 32" version="1.1">
    <title>fill-ele-symbol-unfold 2</title>
    <g id="fill-ele-symbol-unfold" stroke-width="1" fill-rule="evenodd">
        <path d="M5,6 L27,6 C27.5522847,6 28,6.44771525 28,7 L28,9 C28,9.55228475 27.5522847,10 27,10 L5,10 C4.44771525,10 4,9.55228475 4,9 L4,7 C4,6.44771525 4.44771525,6 5,6 Z M14,14 L27,14 C27.5522847,14 28,14.4477153 28,15 L28,17 C28,17.5522847 27.5522847,18 27,18 L14,18 C13.4477153,18 13,17.5522847 13,17 L13,15 C13,14.4477153 13.4477153,14 14,14 Z M5,22 L27,22 C27.5522847,22 28,22.4477153 28,23 L28,25 C28,25.5522847 27.5522847,26 27,26 L5,26 C4.44771525,26 4,25.5522847 4,25 L4,23 C4,22.4477153 4.44771525,22 5,22 Z M4.99846037,15.3343598 L8.75623982,12.8291735 C9.12386278,12.5840915 9.62055826,12.6834306 9.86564023,13.0510535 C9.95324958,13.1824675 10,13.3368737 10,13.4948137 L10,18.5051863 C10,18.9470141 9.64182779,19.3051863 9.19999999,19.3051863 C9.04206,19.3051863 8.88765384,19.2584359 8.75623982,19.1708265 L4.99846037,16.6656402 C4.63083741,16.4205583 4.53149832,15.9238628 4.77658029,15.5562398 C4.83516817,15.468358 4.91057854,15.3929476 4.99846037,15.3343598 Z" id="&#24418;&#29366;" />
    </g>
</svg>

<svg xmlns="http://www.w3.org/2000/svg" viewBox="0 0 32 32"><path fill="currentColor" d="M5 6h22a1 1 0 0 1 1 1v2a1 1 0 0 1-1 1H5a1 1 0 0 1-1-1V7a1 1 0 0 1 1-1m9 8h13a1 1 0 0 1 1 1v2a1 1 0 0 1-1 1H14a1 1 0 0 1-1-1v-2a1 1 0 0 1 1-1m-9 8h22a1 1 0 0 1 1 1v2a1 1 0 0 1-1 1H5a1 1 0 0 1-1-1v-2a1 1 0 0 1 1-1m-.002-6.666 3.758-2.505a.8.8 0 0 1 1.244.666v5.01a.8.8 0 0 1-1.244.666l-3.758-2.505a.8.8 0 0 1 0-1.332"/></svg>
